dist/files/navbar_tracking.svg

<svg width="41" height="47" viewBox="0 0 41 47" fill="none" xmlns="http://www.w3.org/2000/svg">
<mask id="mask0_5175_1935" style="mask-type:luminance" maskUnits="userSpaceOnUse" x="0" y="0" width="41" height="47">
<path d="M0 0H40.3409V47H0V0Z" fill="white"/>
</mask>
<g mask="url(#mask0_5175_1935)">
<path d="M40.3161 11.9799C40.3161 11.9753 40.3161 11.9713 40.3147 11.9666C40.3147 11.9572 40.3141 11.9492 40.3141 11.9399C40.3127 11.9232 40.3127 11.9085 40.3101 11.8931C40.3087 11.8858 40.3081 11.8791 40.3067 11.8704C40.304 11.8531 40.302 11.8364 40.2974 11.819C40.296 11.8143 40.2947 11.8083 40.294 11.8037C40.2894 11.785 40.2847 11.7663 40.2787 11.7476C40.2773 11.7442 40.276 11.7402 40.2753 11.7369C40.268 11.7169 40.2606 11.6968 40.2526 11.6781C40.2513 11.6748 40.2493 11.6714 40.248 11.6674C40.2386 11.6487 40.2293 11.6301 40.2199 11.6114C40.2186 11.61 40.2186 11.6094 40.2172 11.608C40.2166 11.6053 40.2152 11.6047 40.2126 11.602C40.1985 11.5786 40.1845 11.5566 40.1685 11.5352C40.1645 11.5292 40.1598 11.5246 40.1565 11.5185C40.1391 11.4952 40.1191 11.4731 40.0991 11.4531C40.0957 11.4498 40.091 11.4464 40.087 11.4424C40.071 11.4271 40.0543 11.4124 40.037 11.399C40.0249 11.3897 40.0149 11.3817 40.0029 11.3736C39.9936 11.3663 39.9842 11.3603 39.9749 11.355C39.9655 11.3489 39.9562 11.3403 39.9455 11.3349L20.5376 0.131281C20.2985 -0.00693691 20.0121 0.00241097 19.7897 0.132616L0.380518 11.3369C0.127453 11.4838 -0.00609101 11.7569 0.0112696 12.03V34.3892C0.0112696 34.6463 0.144813 34.8973 0.384524 35.0342L19.7323 46.2025C19.7343 46.2038 19.7357 46.2045 19.7377 46.2058C19.765 46.2245 19.7917 46.2412 19.8211 46.2566C19.8285 46.2599 19.8351 46.2632 19.8412 46.2659C19.8679 46.2786 19.8952 46.2893 19.9233 46.3C19.928 46.3006 19.9326 46.3033 19.9373 46.3046C19.9687 46.3153 20.0021 46.322 20.0348 46.328C20.0428 46.3293 20.0508 46.33 20.0595 46.3314C20.0936 46.336 20.1283 46.3394 20.1637 46.3394C20.1637 46.3394 20.1637 46.3394 20.165 46.3394C20.2011 46.3394 20.2351 46.336 20.2705 46.3314C20.2785 46.33 20.2859 46.3293 20.2939 46.328C20.3279 46.322 20.3606 46.3153 20.3927 46.3046C20.3974 46.3033 20.4007 46.3006 20.4054 46.3C20.4334 46.2906 20.4615 46.2786 20.4888 46.2659C20.4955 46.2619 20.5015 46.2599 20.5082 46.2566C20.5376 46.2412 20.565 46.2245 20.5917 46.2058C20.5943 46.2045 20.595 46.2038 20.5977 46.2025L27.1593 42.4145C27.5226 43.0689 27.8778 43.6972 28.2077 44.2795C28.7145 45.1749 29.1552 45.9548 29.4636 46.5424C29.5318 46.6726 29.6386 46.7841 29.7795 46.8582C30.1434 47.0478 30.5921 46.9069 30.7824 46.5424C31.0882 45.9594 31.5269 45.1835 32.0317 44.2908C33.1515 42.3077 34.585 39.771 35.5853 37.5509L39.9468 35.0342C40.1859 34.8973 40.3194 34.6476 40.3194 34.3892L40.3161 11.9799ZM20.1637 22.3256L19.6075 22.0044L2.24479 11.9806L7.60723 8.88506L25.5261 19.2293L23.328 20.4987L20.1637 22.3256ZM13.6948 5.37153L31.6137 15.7151L27.0158 18.3687L9.09691 8.02504L13.6948 5.37153ZM27.8878 19.646C29.3782 18.7826 30.8665 17.9139 32.3555 17.0446V20.1428L27.8878 22.7222V19.646ZM20.1637 1.63632L38.0839 11.9806L33.1014 14.8565L15.1812 4.51285L20.1637 1.63632ZM1.49961 13.27L18.5131 23.0888L19.4178 23.6109V44.3028L1.49828 33.9592L1.49961 13.27ZM30.7343 43.5617L30.1207 44.65L29.499 43.545C27.6575 40.2885 24.9432 35.4896 24.9432 33.5993C24.9432 32.133 25.5241 30.8069 26.4623 29.8501C27.3984 28.8966 28.6924 28.3056 30.1207 28.3056C31.5496 28.3056 32.843 28.8966 33.7791 29.8501C34.7179 30.8069 35.2982 32.1317 35.2982 33.5993C35.2982 34.2911 34.9309 35.3781 34.376 36.6368C34.3447 36.6895 34.32 36.7456 34.3026 36.8043C33.3418 38.9464 31.8694 41.5512 30.7343 43.5617ZM36.456 35.3287C36.667 34.659 36.7912 34.068 36.7912 33.598C36.7912 31.7284 36.0453 30.0337 34.8408 28.8051C33.6329 27.5738 31.9636 26.8113 30.1207 26.8113C28.2778 26.8113 26.6091 27.5738 25.4006 28.8051C24.1953 30.0337 23.4502 31.7284 23.4502 33.598C23.4502 35.2292 24.9085 38.268 26.4416 41.1091L20.9108 44.3015V23.6169C22.7404 22.5973 24.5679 21.5577 26.3935 20.5067V24.0109C26.3935 24.4235 26.7273 24.7581 27.1407 24.7581C27.3009 24.7581 27.4498 24.7073 27.572 24.6205L33.472 21.2151C33.711 21.0776 33.8452 20.8279 33.8452 20.5701H33.8485V16.1712C35.5105 15.2003 37.1704 14.2315 38.8291 13.27L38.8297 33.9579L36.456 35.3287ZM8.15609 34.7611C7.95177 35.1164 7.49706 35.2399 7.14049 35.0356L3.26706 32.8007C2.91184 32.5964 2.78898 32.1417 2.99263 31.7851C3.19695 31.4292 3.65234 31.3064 4.0089 31.5107L7.88166 33.7455C8.23822 33.9512 8.36042 34.4046 8.15609 34.7611ZM30.1207 30.2227C29.276 30.2227 28.5101 30.5725 27.9566 31.1374C27.4057 31.699 27.0639 32.4735 27.0639 33.3255C27.0639 34.1775 27.4057 34.9521 27.9566 35.5143C28.5101 36.0792 29.276 36.4291 30.1207 36.4291C30.9653 36.4291 31.7312 36.0792 32.2848 35.5143C32.8363 34.9521 33.1775 34.1782 33.1775 33.3255C33.1775 32.4742 32.8363 31.699 32.2848 31.1374C31.7312 30.5725 30.9653 30.2227 30.1207 30.2227ZM31.2231 34.4693C30.942 34.7565 30.5514 34.9347 30.1207 34.9347C29.6907 34.9347 29.3001 34.7565 29.0183 34.4693C28.7345 34.1796 28.5576 33.7749 28.5576 33.3255C28.5576 32.8768 28.7332 32.4722 29.0183 32.1824C29.3001 31.8953 29.6907 31.717 30.1207 31.717C30.5514 31.717 30.942 31.8953 31.2231 32.1824C31.5082 32.4722 31.6845 32.8768 31.6845 33.3255C31.6845 33.7749 31.5082 34.1782 31.2231 34.4693Z" fill="#000066"/>
</g>
</svg>

<svg xmlns="http://www.w3.org/2000/svg" width="41" height="47" fill="none"><mask id="a" width="41" height="47" x="0" y="0" maskUnits="userSpaceOnUse" style="mask-type:luminance"><path fill="#fff" d="M0 0h40.34v47H0V0Z"/></mask><g mask="url(#a)"><path fill="#006" d="m40.316 11.98-.001-.013v-.027c-.002-.017-.002-.031-.005-.047l-.003-.023c-.003-.017-.005-.034-.01-.051a.835.835 0 0 0-.045-.14c0-.004-.003-.008-.004-.012l-.028-.056-.003-.003c0-.003-.002-.003-.004-.006a.795.795 0 0 0-.044-.067c-.005-.006-.01-.01-.012-.017a.612.612 0 0 0-.058-.065l-.012-.01a.64.64 0 0 0-.05-.044l-.034-.025a.226.226 0 0 0-.028-.019c-.01-.006-.019-.015-.03-.02L20.539.13a.745.745 0 0 0-.748.002L.38 11.337a.746.746 0 0 0-.369.693v22.36c0 .256.134.507.374.644l19.347 11.169.006.003a.814.814 0 0 0 .083.05l.02.01c.027.013.054.023.082.034.005 0 .01.003.014.005.032.01.065.017.098.023l.024.003a.778.778 0 0 0 .105.008h.001c.036 0 .07-.003.105-.008l.024-.003a.687.687 0 0 0 .099-.023l.012-.005a.816.816 0 0 0 .084-.034l.02-.01a.755.755 0 0 0 .083-.05l.006-.004 6.561-3.788c.364.655.719 1.283 1.049 1.865.507.896.947 1.676 1.256 2.263a.744.744 0 0 0 1.319 0c.305-.583.744-1.358 1.249-2.251 1.12-1.983 2.553-4.52 3.553-6.74l4.362-2.517a.74.74 0 0 0 .372-.645l-.003-22.41ZM20.164 22.326l-.556-.322L2.245 11.981l5.362-3.096 17.92 10.344-2.199 1.27-3.164 1.827Zm-6.47-16.954 17.92 10.343-4.598 2.654L9.096 8.025l4.599-2.653Zm14.194 14.274c1.49-.863 2.978-1.732 4.467-2.601v3.098l-4.467 2.58v-3.077Zm-7.724-18.01 17.92 10.345-4.983 2.876-17.92-10.344 4.983-2.877ZM1.5 13.27l17.013 9.819.905.522v20.692L1.498 33.959 1.5 13.27Zm29.234 30.292-.613 1.088-.622-1.105c-1.841-3.257-4.556-8.055-4.556-9.946 0-1.466.581-2.792 1.52-3.749a5.113 5.113 0 0 1 3.658-1.544c1.429 0 2.722.59 3.658 1.544a5.333 5.333 0 0 1 1.52 3.75c0 .691-.368 1.778-.923 3.037a.74.74 0 0 0-.073.167c-.961 2.142-2.434 4.747-3.569 6.758Zm5.722-8.233c.211-.67.335-1.261.335-1.731 0-1.87-.746-3.564-1.95-4.793a6.593 6.593 0 0 0-4.72-1.994 6.594 6.594 0 0 0-4.72 1.994 6.824 6.824 0 0 0-1.95 4.793c0 1.631 1.457 4.67 2.99 7.511l-5.53 3.192V23.617c1.83-1.02 3.657-2.06 5.482-3.11v3.504a.747.747 0 0 0 1.179.61l5.9-3.406a.743.743 0 0 0 .373-.645h.004v-4.399c1.662-.97 3.321-1.94 4.98-2.901v20.688l-2.373 1.37Zm-28.3-.568a.745.745 0 0 1-1.016.275L3.267 32.8a.745.745 0 0 1 .742-1.29l3.873 2.235c.356.205.478.659.274 1.015Zm21.965-4.538c-.845 0-1.61.35-2.164.914a3.119 3.119 0 0 0-.893 2.188c0 .852.342 1.627.893 2.19.553.564 1.319.914 2.164.914.844 0 1.61-.35 2.164-.915a3.118 3.118 0 0 0 .893-2.189c0-.85-.342-1.626-.893-2.188a3.022 3.022 0 0 0-2.164-.914Zm1.102 4.246a1.539 1.539 0 0 1-2.205 0 1.63 1.63 0 0 1-.46-1.144c0-.448.175-.853.46-1.143a1.542 1.542 0 0 1 2.205 0c.285.29.462.695.462 1.143 0 .45-.177.853-.462 1.144Z"/></g></svg>
